X: 12769
T: Father Tom's Wager
R: jig
M: 6/8
K: Gmajor
dge dBG|AEF GDB,|G,B,D GBd|cBc ABc|
dge dBG|AEF GDB,|G,B,D GBd|cAF G2:|
Bdg bag|gfe edc|B/c/dB cAG|
[1 FAD D2 c|Bdg bag|gfe edc|B/c/dB cAF|AGF G2:|
[2 FAD Ddc|B2 d gdB|cGE CEG|F/G/AF Df/e/g|gdB G2||

